X: 1
T: Ellen O'Dwyer's Fancy
M: 2/4
L: 1/8
R: polka
K: Gmaj
B/d/|:gf ed|B/c/d/B/ GB|Ae ed|GA Bd|
gf ed|B/c/d/B/ GB|Ae ed|1 G2 G B/d/:|2 G2 G2||
|:B A/B/ G2|A B/A/ e2|ed ed|GA Bd|
B A/B/ G2|A B/A/ e2|ed ef|g2 g2:|
